src/assets/clients/kulturforening-humlan.svg

<svg xmlns="http://www.w3.org/2000/svg" fill="none" viewBox="0 0 1521 569"><path fill="#8895CB" d="M1012.89 1.974c3.87-2.093 8.6-2.626 12.78-1.093 10.81 3.587 22.65 5.387 31.9 12.507 3.62 2.746 5.15 7.693 3.47 11.96-3.88 12.506-11.73 23.253-19.21 33.826-17.99 24.587-37.9 47.707-55.631 72.48-11.226 15.92-22.293 32.307-28.973 50.734-3.987 10.986-5.987 23.506-1.04 34.546 22.507-9.986 41.933-25.64 59.724-42.44 25.33-23.546 46.62-51.106 72.45-74.146 9.48-7.84 20.63-16.614 33.72-15.067 4.35.36 8.65-.52 13.01-.653 1.36 1.746 3.51 3.4 3.08 5.933-.93 2.573-2.2 5.027-3.3 7.533 4.54.534 9.12.094 13.66-.466.76 2.6 1.88 5.293 1.47 8.053-4.71 10.413-10.92 20.6-11.91 32.213-.85 4.72 4.86 6 8.11 7.494-.84 17.44-11.69 31.973-15.97 48.493-1.72 6.067-2.2 12.373-2.48 18.64 7.48-5.053 13.57-11.787 19.76-18.293 27.88-29.894 53.89-61.587 83.68-89.654 7.65-7.133 15.61-14.053 24.45-19.706 4.39-2.587 9.2-5.227 14.44-5.12 6.07.88 11.8 3.493 16.95 6.76 3.42 2.24 7.6 2.933 11.02 5.213 1.07 1.733-.68 3.467-1.14 5.107-3.23 6.093-1.59 13.253-3.43 19.72-4.92 18.24-15.81 34.346-20.24 52.72 17.49-5.254 23.2-25.04 37.93-34.134 9.44-5.813 18.19-12.786 25.84-20.813 5.43-5.227 10.32-11.2 16.88-15.093 5.62-3.427 12.32-4.52 18.82-4.507 4.94.053 8.98 3.293 13.29 5.307 1.35 5.293 2.19 10.88 4.97 15.653 1.04 2.253 5.35.427 5.36 3.52 2.02 4.2-1.14 8-2.8 11.667-11.53 22.32-15.6 47.786-15.06 72.72.21 5.333.26 10.76 2.04 15.88 7.09 1.973 14.6.706 21.7-.64 20.76-4.547 40.07-14.134 58.03-25.28 9.72-6.56 19.91-12.56 28.52-20.6 11.32-10.174 20.55-22.467 32.11-32.387.42 11.64-8.56 20.28-13.99 29.68-1.6 7.6-1.59 16.493-7.72 22.173 3.77 8.494.41 17.974-4.2 25.4-9.84 15.947-24.56 28.4-40.61 37.774-14.98 8.4-32.03 14.44-49.4 13.36-7.32-1.094-15.2-.48-21.8-4.347-15.92-8.453-31.43-18.667-42.72-32.933-7.35-9.2-12.58-20.214-14.14-31.934-1.09-7.093-.1-14.293-.78-21.413-5.46 1.733-8.84 6.6-12.86 10.333-6.06 6.334-12.17 12.64-17.74 19.414-4.67 6.546-12.64 9.573-17.44 16.026-6.62 6.974-9.71 16.694-17.24 22.854-3.58 2.6-8.08 4.68-12.59 3.96-3.48-.76-4.64-5.36-8.13-5.814-5.08.88-10.82 2.454-15.44-.733-5.78-5-11.52-10.747-13.38-18.427-3.41-8.693-1.48-18.226 1.5-26.733 2.42-7.533 6.2-14.613 8.05-22.32.57-1.893-.13-3.773-.72-5.56-14.73 19.787-29.89 39.307-46.83 57.28-9.24 9.387-18.38 19.587-30.46 25.333-7.1 3.84-13.1-3.813-20.1-3.96-1.96.974-3.28 3.027-5.46 3.494-8.75-1.4-16.39-6.654-22.36-13-3.26-3.027-5.96-6.774-9.87-8.974-9.2 3.227-15.6 12.28-25.31 14.574-5.58-1.294-11.01-3.96-16.86-3.64-2 .72-3.78 1.933-5.72 2.72-3.96-.84-7.44-3.12-10.48-5.694-4.55-3.92-6.86-9.906-11.98-13.2-13.54 10.6-26.304 22.907-42.664 29.147-10.187 3.867-21.973 5.987-32.333 1.533-12.72-4.8-22.827-15.56-27.134-28.413-.96-3.053-2.093-7.053-5.986-7.24-3.494.667-6.374 2.907-8.987 5.16-8.107 6.973-14.8 15.387-22.773 22.493-10.934 10.094-23.507 19.76-38.6 22.107-11.147 1.2-23.667.36-32.56-7.253-8.427-7.36-10.374-19.307-9.88-29.92 1.226-14.627 6.693-28.427 12.293-41.84 5.6-13.387 12.6-26.12 18.84-39.174-1.227-3.173-5-2.253-7.373-1.266-8.894 3.773-16.334 10.16-23.387 16.6-10.333 9.946-20.293 20.866-26.12 34.133-2.707 5.84-3.587 13.08.72 18.427-12.947 22.28-29.133 42.546-46.453 61.546-2.414 2.76-3.827-2.413-4.88-4.106-6.214-1.08-12.214 3.253-18.334 1.066-9.08-2.173-14.786-11.026-16.226-19.8-2.614-10.32 2.16-20.48 6.253-29.72 7.667-16.226 15.507-32.373 22.44-48.933-10.64 2.72-21.933 1.987-32.253 6.013-14.867 5.32-26.707 16.627-35.827 29.214-11.667 15.773-19.68 33.786-29.56 50.64-4.48 7.186-9.067 14.96-16.627 19.266-6.533 3.88-14.706 1.787-21.066-1.413-9.134-4.627-14.4-14.947-13.88-25.04-.934-21.013 8.533-40.307 15.76-59.453 2.266-6.88 5.746-15.36.68-21.854-11.36 11.747-22.854 23.614-31.947 37.254-2.387 3.053-2.68 6.8-1.867 10.466-11.426 12.36-20.173 26.867-30.493 40.134-9.24 12.306-19.12 24.333-31.093 34.093-6.707 5.227-14.614 9.987-23.387 9.947-11.76-.534-23.947-3.36-33.333-10.814-8.214-6.426-13.08-16.36-14.694-26.52-1.68-11.76-.2-23.693 2.747-35.133-22.76 14.747-32.547 42.387-54.387 58.187-5.84 4.186-12.773 7.16-20.026 7.28-7.214.093-14.454-.067-21.587-1.227-5.027-.853-10.453-3.08-12.787-7.947-4.706-10.306-4.266-22.186-1.293-32.92 7.28-27.813 18.493-54.386 27.6-81.613 1.4-4.373 2.88-8.76 3.667-13.293.746-3.8-1.014-8.427-4.854-9.814-5.36-2.026-11.173-.76-16.72-.746-11.56.76-24.013 1.453-33.853 8.266-3.44 1.96-4.213 6.054-5.533 9.454-7.32 21.186-13.214 42.826-19.68 64.28-9.467 31.84-19.574 63.56-32.507 94.186-9.64 22.52-20.613 44.72-35.44 64.334-14.04 5-21.053 19.8-33.947 26.666 4.84-57.466 20.467-113.32 37.507-168.2 6.533-21.133 13.813-42.04 19.72-63.373 1.133-4.867 3.027-9.88 1.84-14.92-15.187 3.827-30.027 10.187-42.627 19.507-14.44 22.96-18.013 50.426-25.866 75.92-6.894 24.08-18.107 47.826-37.08 64.746-7.12-2.293-14.267 1.32-19.067 6.467-5.36 5.653-10.48 11.573-16.373 16.707-3.494-.854-8.454-2.16-8.04-6.747-.24-25.76 4-51.427 11.146-76.133 3.734-13.347 8.294-26.48 11.014-40.08-7.734 3.853-15.36 9.84-24.454 9.093-6.68-1.453-10.693-7.72-15.773-11.773 9.373-8.04 21.267-11.84 32.387-16.68 7.36-3.387 13.626-9.387 16.706-16.96 4.454-10.654 6.88-21.987 9.814-33.107 5.24-20.36 10.053-41.12 19.653-59.96 5.107-9.533 11.96-19.28 22.573-23.027 7.24-2.226 15.307-1.533 22.254 1.4 11.026 4.774 18.413 16.68 17.68 28.694-1.494 16.88-6.4 33.16-10.12 49.613 5.186-1.093 10.44-1.987 15.493-3.6 4.72-2.027 8.507-5.667 13-8.107 6.16-3.666 13.44-4.573 20.44-5.186 5.813-9.174 9.213-19.56 13.027-29.654 7.213-20.226 16.853-39.986 31.493-55.92 4.24 2.92 7.973 6.6 10.613 11.054 5.36 8.333 6.654 18.346 10.267 27.4-5.48 4.92-6.453 12.466-6.8 19.4-.307 7.146-.013 14.293.28 21.44 11.72-3.187 23.787-4.747 35.8-6.387 16.373-2.373 33.893 1.36 47.28 11.267 8.933 6.413 14.64 17.346 13.56 28.453-1.027 12.64-3.933 25.267-9.24 36.813-4.133 9.507-11.027 17.32-16.747 25.84-4.266 6.32-5.866 14.054-5.386 21.6 27.706-28.853 53.68-59.346 82.133-87.48 9.267-8.866 20.307-18.426 34.013-17.706 7.24 1.16 14.014 4.6 20.067 8.653 2.76 2.093 6.453 5.48 4.68 9.307-11.387 23.8-22.693 47.733-31.28 72.72-2.267 7.226-4.88 14.6-4.827 22.253-.213 3.453 4.494 7.333 7.414 4.573 5.946-4.32 10.96-9.76 15.786-15.266 22.64-26.267 42.747-54.814 67.934-78.814 19.213-18.24 42.106-35.48 69.32-38.16 8.96-.373 18.453-1.266 26.96 2.254 5.32 2.213 8.266 7.853 8.6 13.413.8 10.16-.574 20.32-.84 30.48 19.32-11.707 37.173-26.147 58.253-34.733 9.84-4.12 20.44-6.787 31.16-6.414 10.04-.293 21.16 1.214 28.653 8.56 3.44 3.16 7.04 8.214 12.44 6.614 5.774-1.92 9.667-6.894 14.214-10.654 14.52-12.986 35.106-17.08 54.066-15.68 12.56.734 25.24 7.267 30.52 19.16-8.266 14.04-16.16 28.32-23.733 42.747-4.373 8.987-9.6 17.747-11.867 27.573 20.374-10.12 37.174-26.186 52.027-43.173 30.173-35.187 51.933-76.413 74.373-116.693 8.427-14.827 16.654-29.867 26.894-43.56 4.837-6.24 10.067-12.574 17.197-16.294Zm74.43 153.32c-8.27 9.054-17.57 17.427-23.65 28.214-.26 4.2 5.68 6.12 8.44 3.506 6.64-6.413 12.78-13.306 19.14-19.986 4.6-5.734 7.23-12.867 8.86-19.974-5.02 1.374-9.4 4.32-12.79 8.24Z"/><path fill="#8895CB" d="M1477.76 335.321c11.88-8.707 22.88-18.547 34.48-27.613 2.47 1.733 4.95 3.466 7.4 5.24-4.05 9.12-10.32 17-16.39 24.84-8.45 10.6-17.2 21-27.08 30.306-4.02 3.734-9.2 5.894-13.34 9.467-4.62 3.893-9.27 8.04-15.11 9.933-7.12 2.08-12.56 7.574-19.57 9.88-20.06 6.894-40.62 13.04-61.86 14.654-14.7.973-29.42 1.226-44.14 1.653-21.28-.667-42.64.307-63.88-1.573-29.07-2.52-58.16-4.654-87.18-7.707-44.76-5.747-89.68-10.2-134.56-14.747-16.77-1.4-33.53-3.613-50.397-3.253-37.8.147-75.613-.347-113.4.333-24.44-.013-48.88.014-73.32-.013-30.613 1.147-61.254-.653-91.853.64-13.054.12-26.014 2.013-38.987 3.293-29.453 2.894-58.32 10.094-86.427 19.147-29.493 9.68-58.88 19.693-87.8 30.96-9.64 3.587-18.746 8.587-28.76 11.147-57.826 16.88-116.173 31.92-174.4 47.373-88.493 23.187-177.013 46.267-265.76 68.48-8.106 2.6-16.613.187-24.906.08 74.04-28.467 148.586-55.667 223.68-81.267 35.24-12.08 70.786-23.213 106.2-34.773 14.626-4.72 28.413-11.64 42.56-17.573 17.746-7.774 36.093-14.054 53.693-22.16 50.92-23.734 104-42.774 158.227-57.374 28.546-6.893 57.76-10.4 86.546-16.04 29.094-4.186 58.534-5.093 87.827-7.2 55.093-3.906 110.36-4.44 165.56-3.906 23.64-.067 47.213 1.733 70.8 3.186 59.737 3.867 119.467 7.854 179.157 12.4 12.96.867 25.78 3.054 38.64 4.68 29.22 3.547 58.62 5.534 87.78 9.627 24.57 3.827 49.49 4.373 74.28 5.84 19.73.667 39.92.8 59.12-4.427 15.46-5.573 29.7-14.186 43.17-23.533Zm-37.76 30.28c-23.07 7.24-47.68 6.333-71.53 5.373-21.24-1.36-42.58-1.813-63.66-4.906-26.54-3.92-53.32-5.934-79.97-8.867-18.17-1.747-36.15-5.227-54.39-6.373-66.76-4.947-133.54-9.507-200.344-13.64-35.053-2.454-70.213-1.614-105.32-1.8-24.96.506-49.92 1.173-74.866 2.133-19.16.987-38.28 2.707-57.441 3.64-24.013 1.773-48.213 2.747-71.826 7.707-30.333 5.453-61.107 9.16-90.627 18.32-34.226 9.96-68 21.533-100.96 35.133-22.96 9.227-44.986 20.573-68.173 29.24-17.787 6.827-35.12 14.733-52.613 22.253-15.12 6.2-30.894 10.587-46.4 15.72-71.814 22.947-143.04 47.787-213.734 74.014 61.414-15.587 122.72-31.6 184.027-47.614 61.907-16.36 123.907-32.413 185.467-50.08 8.106-2.266 16.12-4.866 23.706-8.546 28.867-11.854 58.427-21.934 88.014-31.827 22.88-7.813 46.24-14.227 69.973-18.867 17.2-3.053 34.613-4.6 51.973-6.426 34.56-2.614 69.227-.347 103.84-1.347 32.094-.44 64.214.36 96.307-.453 35.853.093 71.72-.12 107.587.106 48.28 3.454 96.37 9.24 144.49 14.374 23.7 3.213 47.48 5.64 71.31 7.546 27.28 2.094 54.53 5.4 81.93 4.987 20.02.187 40 .28 60-.88 18.43-.467 36.6-4.44 54.12-10.013 7.39-2.414 15.14-4.174 21.78-8.4 3.57-2.36 7.26-4.627 11.41-5.867 7.85-2.44 12.87-9.507 19.88-13.44 4.19-2.373 7.96-5.427 11.24-8.987 9.21-9.76 17.91-20.026 25.95-30.786-18.18 15.96-38.72 29.44-61.15 38.573Z"/></svg>

<svg width="1521" height="569" viewBox="0 0 1521 569" fill="none" xmlns="http://www.w3.org/2000/svg">
<path d="M1012.89 1.97437C1016.76 -0.118964 1021.49 -0.652297 1025.67 0.881036C1036.48 4.4677 1048.32 6.2677 1057.57 13.3877C1061.19 16.1344 1062.72 21.081 1061.04 25.3477C1057.16 37.8544 1049.31 48.601 1041.83 59.1744C1023.84 83.761 1003.93 106.881 986.199 131.654C974.973 147.574 963.906 163.961 957.226 182.388C953.239 193.374 951.239 205.894 956.186 216.934C978.693 206.948 998.119 191.294 1015.91 174.494C1041.24 150.948 1062.53 123.388 1088.36 100.348C1097.84 92.5077 1108.99 83.7344 1122.08 85.281C1126.43 85.641 1130.73 84.761 1135.09 84.6277C1136.45 86.3744 1138.6 88.0277 1138.17 90.561C1137.24 93.1344 1135.97 95.5877 1134.87 98.0944C1139.41 98.6277 1143.99 98.1877 1148.53 97.6277C1149.29 100.228 1150.41 102.921 1150 105.681C1145.29 116.094 1139.08 126.281 1138.09 137.894C1137.24 142.614 1142.95 143.894 1146.2 145.388C1145.36 162.828 1134.51 177.361 1130.23 193.881C1128.51 199.948 1128.03 206.254 1127.75 212.521C1135.23 207.468 1141.32 200.734 1147.51 194.228C1175.39 164.334 1201.4 132.641 1231.19 104.574C1238.84 97.441 1246.8 90.521 1255.64 84.8677C1260.03 82.281 1264.84 79.641 1270.08 79.7477C1276.15 80.6277 1281.88 83.241 1287.03 86.5077C1290.45 88.7477 1294.63 89.441 1298.05 91.721C1299.12 93.4544 1297.37 95.1877 1296.91 96.8277C1293.68 102.921 1295.32 110.081 1293.48 116.548C1288.56 134.788 1277.67 150.894 1273.24 169.268C1290.73 164.014 1296.44 144.228 1311.17 135.134C1320.61 129.321 1329.36 122.348 1337.01 114.321C1342.44 109.094 1347.33 103.121 1353.89 99.2277C1359.51 95.801 1366.21 94.7077 1372.71 94.721C1377.65 94.7744 1381.69 98.0144 1386 100.028C1387.35 105.321 1388.19 110.908 1390.97 115.681C1392.01 117.934 1396.32 116.108 1396.33 119.201C1398.35 123.401 1395.19 127.201 1393.53 130.868C1382 153.188 1377.93 178.654 1378.47 203.588C1378.68 208.921 1378.73 214.348 1380.51 219.468C1387.6 221.441 1395.11 220.174 1402.21 218.828C1422.97 214.281 1442.28 204.694 1460.24 193.548C1469.96 186.988 1480.15 180.988 1488.76 172.948C1500.08 162.774 1509.31 150.481 1520.87 140.561C1521.29 152.201 1512.31 160.841 1506.88 170.241C1505.28 177.841 1505.29 186.734 1499.16 192.414C1502.93 200.908 1499.57 210.388 1494.96 217.814C1485.12 233.761 1470.4 246.214 1454.35 255.588C1439.37 263.988 1422.32 270.028 1404.95 268.948C1397.63 267.854 1389.75 268.468 1383.15 264.601C1367.23 256.148 1351.72 245.934 1340.43 231.668C1333.08 222.468 1327.85 211.454 1326.29 199.734C1325.2 192.641 1326.19 185.441 1325.51 178.321C1320.05 180.054 1316.67 184.921 1312.65 188.654C1306.59 194.988 1300.48 201.294 1294.91 208.068C1290.24 214.614 1282.27 217.641 1277.47 224.094C1270.85 231.068 1267.76 240.788 1260.23 246.948C1256.65 249.548 1252.15 251.628 1247.64 250.908C1244.16 250.148 1243 245.548 1239.51 245.094C1234.43 245.974 1228.69 247.548 1224.07 244.361C1218.29 239.361 1212.55 233.614 1210.69 225.934C1207.28 217.241 1209.21 207.708 1212.19 199.201C1214.61 191.668 1218.39 184.588 1220.24 176.881C1220.81 174.988 1220.11 173.108 1219.52 171.321C1204.79 191.108 1189.63 210.628 1172.69 228.601C1163.45 237.988 1154.31 248.188 1142.23 253.934C1135.13 257.774 1129.13 250.121 1122.13 249.974C1120.17 250.948 1118.85 253.001 1116.67 253.468C1107.92 252.068 1100.28 246.814 1094.31 240.468C1091.05 237.441 1088.35 233.694 1084.44 231.494C1075.24 234.721 1068.84 243.774 1059.13 246.068C1053.55 244.774 1048.12 242.108 1042.27 242.428C1040.27 243.148 1038.49 244.361 1036.55 245.148C1032.59 244.308 1029.11 242.028 1026.07 239.454C1021.52 235.534 1019.21 229.548 1014.09 226.254C1000.55 236.854 987.786 249.161 971.426 255.401C961.239 259.268 949.453 261.388 939.093 256.934C926.373 252.134 916.266 241.374 911.959 228.521C910.999 225.468 909.866 221.468 905.973 221.281C902.479 221.948 899.599 224.188 896.986 226.441C888.879 233.414 882.186 241.828 874.213 248.934C863.279 259.028 850.706 268.694 835.613 271.041C824.466 272.241 811.946 271.401 803.053 263.788C794.626 256.428 792.679 244.481 793.173 233.868C794.399 219.241 799.866 205.441 805.466 192.028C811.066 178.641 818.066 165.908 824.306 152.854C823.079 149.681 819.306 150.601 816.933 151.588C808.039 155.361 800.599 161.748 793.546 168.188C783.213 178.134 773.253 189.054 767.426 202.321C764.719 208.161 763.839 215.401 768.146 220.748C755.199 243.028 739.013 263.294 721.693 282.294C719.279 285.054 717.866 279.881 716.813 278.188C710.599 277.108 704.599 281.441 698.479 279.254C689.399 277.081 683.693 268.228 682.253 259.454C679.639 249.134 684.413 238.974 688.506 229.734C696.173 213.508 704.013 197.361 710.946 180.801C700.306 183.521 689.013 182.788 678.693 186.814C663.826 192.134 651.986 203.441 642.866 216.028C631.199 231.801 623.186 249.814 613.306 266.668C608.826 273.854 604.239 281.628 596.679 285.934C590.146 289.814 581.973 287.721 575.613 284.521C566.479 279.894 561.213 269.574 561.733 259.481C560.799 238.468 570.266 219.174 577.493 200.028C579.759 193.148 583.239 184.668 578.173 178.174C566.813 189.921 555.319 201.788 546.226 215.428C543.839 218.481 543.546 222.228 544.359 225.894C532.933 238.254 524.186 252.761 513.866 266.028C504.626 278.334 494.746 290.361 482.773 300.121C476.066 305.348 468.159 310.108 459.386 310.068C447.626 309.534 435.439 306.708 426.053 299.254C417.839 292.828 412.973 282.894 411.359 272.734C409.679 260.974 411.159 249.041 414.106 237.601C391.346 252.348 381.559 279.988 359.719 295.788C353.879 299.974 346.946 302.948 339.693 303.068C332.479 303.161 325.239 303.001 318.106 301.841C313.079 300.988 307.653 298.761 305.319 293.894C300.613 283.588 301.053 271.708 304.026 260.974C311.306 233.161 322.519 206.588 331.626 179.361C333.026 174.988 334.506 170.601 335.293 166.068C336.039 162.268 334.279 157.641 330.439 156.254C325.079 154.228 319.266 155.494 313.719 155.508C302.159 156.268 289.706 156.961 279.866 163.774C276.426 165.734 275.653 169.828 274.333 173.228C267.013 194.414 261.119 216.054 254.653 237.508C245.186 269.348 235.079 301.068 222.146 331.694C212.506 354.214 201.533 376.414 186.706 396.028C172.666 401.028 165.653 415.828 152.759 422.694C157.599 365.228 173.226 309.374 190.266 254.494C196.799 233.361 204.079 212.454 209.986 191.121C211.119 186.254 213.013 181.241 211.826 176.201C196.639 180.028 181.799 186.388 169.199 195.708C154.759 218.668 151.186 246.134 143.333 271.628C136.439 295.708 125.226 319.454 106.253 336.374C99.1327 334.081 91.9861 337.694 87.1861 342.841C81.8261 348.494 76.7061 354.414 70.8127 359.548C67.3194 358.694 62.3594 357.388 62.7727 352.801C62.5327 327.041 66.7727 301.374 73.9194 276.668C77.6527 263.321 82.2127 250.188 84.9327 236.588C77.1994 240.441 69.5727 246.428 60.4794 245.681C53.7994 244.228 49.7861 237.961 44.7061 233.908C54.0794 225.868 65.9727 222.068 77.0927 217.228C84.4527 213.841 90.7194 207.841 93.7994 200.268C98.2527 189.614 100.679 178.281 103.613 167.161C108.853 146.801 113.666 126.041 123.266 107.201C128.373 97.6677 135.226 87.921 145.839 84.1744C153.079 81.9477 161.146 82.641 168.093 85.5744C179.119 90.3477 186.506 102.254 185.773 114.268C184.279 131.148 179.373 147.428 175.653 163.881C180.839 162.788 186.093 161.894 191.146 160.281C195.866 158.254 199.653 154.614 204.146 152.174C210.306 148.508 217.586 147.601 224.586 146.988C230.399 137.814 233.799 127.428 237.613 117.334C244.826 97.1077 254.466 77.3477 269.106 61.4144C273.346 64.3344 277.079 68.0144 279.719 72.4677C285.079 80.801 286.373 90.8144 289.986 99.8677C284.506 104.788 283.533 112.334 283.186 119.268C282.879 126.414 283.173 133.561 283.466 140.708C295.186 137.521 307.253 135.961 319.266 134.321C335.639 131.948 353.159 135.681 366.546 145.588C375.479 152.001 381.186 162.934 380.106 174.041C379.079 186.681 376.173 199.308 370.866 210.854C366.733 220.361 359.839 228.174 354.119 236.694C349.853 243.014 348.253 250.748 348.733 258.294C376.439 229.441 402.413 198.948 430.866 170.814C440.133 161.948 451.173 152.388 464.879 153.108C472.119 154.268 478.893 157.708 484.946 161.761C487.706 163.854 491.399 167.241 489.626 171.068C478.239 194.868 466.933 218.801 458.346 243.788C456.079 251.014 453.466 258.388 453.519 266.041C453.306 269.494 458.013 273.374 460.933 270.614C466.879 266.294 471.893 260.854 476.719 255.348C499.359 229.081 519.466 200.534 544.653 176.534C563.866 158.294 586.759 141.054 613.973 138.374C622.933 138.001 632.426 137.108 640.933 140.628C646.253 142.841 649.199 148.481 649.533 154.041C650.333 164.201 648.959 174.361 648.693 184.521C668.013 172.814 685.866 158.374 706.946 149.788C716.786 145.668 727.386 143.001 738.106 143.374C748.146 143.081 759.266 144.588 766.759 151.934C770.199 155.094 773.799 160.148 779.199 158.548C784.973 156.628 788.866 151.654 793.413 147.894C807.933 134.908 828.519 130.814 847.479 132.214C860.039 132.948 872.719 139.481 877.999 151.374C869.733 165.414 861.839 179.694 854.266 194.121C849.893 203.108 844.666 211.868 842.399 221.694C862.773 211.574 879.573 195.508 894.426 178.521C924.599 143.334 946.359 102.108 968.799 61.8277C977.226 47.001 985.453 31.961 995.693 18.2677C1000.53 12.0277 1005.76 5.69437 1012.89 1.97437ZM1087.32 155.294C1079.05 164.348 1069.75 172.721 1063.67 183.508C1063.41 187.708 1069.35 189.628 1072.11 187.014C1078.75 180.601 1084.89 173.708 1091.25 167.028C1095.85 161.294 1098.48 154.161 1100.11 147.054C1095.09 148.428 1090.71 151.374 1087.32 155.294Z" fill="black"/>
<path d="M1477.76 335.321C1489.64 326.614 1500.64 316.774 1512.24 307.708C1514.71 309.441 1517.19 311.174 1519.64 312.948C1515.59 322.068 1509.32 329.948 1503.25 337.788C1494.8 348.388 1486.05 358.788 1476.17 368.094C1472.15 371.828 1466.97 373.988 1462.83 377.561C1458.21 381.454 1453.56 385.601 1447.72 387.494C1440.6 389.574 1435.16 395.068 1428.15 397.374C1408.09 404.268 1387.53 410.414 1366.29 412.028C1351.59 413.001 1336.87 413.254 1322.15 413.681C1300.87 413.014 1279.51 413.988 1258.27 412.108C1229.2 409.588 1200.11 407.454 1171.09 404.401C1126.33 398.654 1081.41 394.201 1036.53 389.654C1019.76 388.254 1003 386.041 986.133 386.401C948.333 386.548 910.52 386.054 872.733 386.734C848.293 386.721 823.853 386.748 799.413 386.721C768.8 387.868 738.16 386.068 707.56 387.361C694.506 387.481 681.546 389.374 668.573 390.654C639.12 393.548 610.253 400.748 582.146 409.801C552.653 419.481 523.266 429.494 494.346 440.761C484.706 444.348 475.6 449.348 465.586 451.908C407.76 468.788 349.413 483.828 291.186 499.281C202.693 522.468 114.173 545.548 25.4262 567.761C17.3195 570.361 8.81286 567.948 0.519531 567.841C74.5595 539.374 149.106 512.174 224.2 486.574C259.44 474.494 294.986 463.361 330.4 451.801C345.026 447.081 358.813 440.161 372.96 434.228C390.706 426.454 409.053 420.174 426.653 412.068C477.573 388.334 530.653 369.294 584.88 354.694C613.426 347.801 642.64 344.294 671.426 338.654C700.52 334.468 729.96 333.561 759.253 331.454C814.346 327.548 869.613 327.014 924.813 327.548C948.453 327.481 972.026 329.281 995.613 330.734C1055.35 334.601 1115.08 338.588 1174.77 343.134C1187.73 344.001 1200.55 346.188 1213.41 347.814C1242.63 351.361 1272.03 353.348 1301.19 357.441C1325.76 361.268 1350.68 361.814 1375.47 363.281C1395.2 363.948 1415.39 364.081 1434.59 358.854C1450.05 353.281 1464.29 344.668 1477.76 335.321ZM1440 365.601C1416.93 372.841 1392.32 371.934 1368.47 370.974C1347.23 369.614 1325.89 369.161 1304.81 366.068C1278.27 362.148 1251.49 360.134 1224.84 357.201C1206.67 355.454 1188.69 351.974 1170.45 350.828C1103.69 345.881 1036.91 341.321 970.106 337.188C935.053 334.734 899.893 335.574 864.786 335.388C839.826 335.894 814.866 336.561 789.92 337.521C770.76 338.508 751.64 340.228 732.48 341.161C708.466 342.934 684.266 343.908 660.653 348.868C630.32 354.321 599.546 358.028 570.026 367.188C535.8 377.148 502.026 388.721 469.066 402.321C446.106 411.548 424.08 422.894 400.893 431.561C383.106 438.388 365.773 446.294 348.28 453.814C333.16 460.014 317.386 464.401 301.88 469.534C230.066 492.481 158.84 517.321 88.1462 543.548C149.56 527.961 210.866 511.948 272.173 495.934C334.08 479.574 396.08 463.521 457.64 445.854C465.746 443.588 473.76 440.988 481.346 437.308C510.213 425.454 539.773 415.374 569.36 405.481C592.24 397.668 615.6 391.254 639.333 386.614C656.533 383.561 673.946 382.014 691.306 380.188C725.866 377.574 760.533 379.841 795.146 378.841C827.24 378.401 859.36 379.201 891.453 378.388C927.306 378.481 963.173 378.268 999.04 378.494C1047.32 381.948 1095.41 387.734 1143.53 392.868C1167.23 396.081 1191.01 398.508 1214.84 400.414C1242.12 402.508 1269.37 405.814 1296.77 405.401C1316.79 405.588 1336.77 405.681 1356.77 404.521C1375.2 404.054 1393.37 400.081 1410.89 394.508C1418.28 392.094 1426.03 390.334 1432.67 386.108C1436.24 383.748 1439.93 381.481 1444.08 380.241C1451.93 377.801 1456.95 370.734 1463.96 366.801C1468.15 364.428 1471.92 361.374 1475.2 357.814C1484.41 348.054 1493.11 337.788 1501.15 327.028C1482.97 342.988 1462.43 356.468 1440 365.601Z" fill="black"/>
</svg>
